img/email.svg

<svg width="20" height="15" viewBox="0 0 20 15" fill="none" xmlns="http://www.w3.org/2000/svg">
<path d="M18 15H2C0.89543 15 0 14.1605 0 13.125V1.79344C0.0466084 0.789889 0.928533 -0.000949102 2 8.54917e-07H18C19.1046 8.54917e-07 20 0.839468 20 1.875V13.125C20 14.1605 19.1046 15 18 15ZM2 3.62625V13.125H18V3.62625L10 8.625L2 3.62625ZM2.8 1.875L10 6.375L17.2 1.875H2.8Z" fill="#2E3A59" fill-opacity="0.43"/>
</svg>

<svg width="20" height="15" fill="none" xmlns="http://www.w3.org/2000/svg"><path d="M18 15H2c-1.105 0-2-.84-2-1.875V1.793C.047.79.929 0 2 0h16c1.105 0 2 .84 2 1.875v11.25C20 14.161 19.105 15 18 15ZM2 3.626v9.499h16V3.626l-8 4.999-8-4.999Zm.8-1.751 7.2 4.5 7.2-4.5H2.8Z" fill="#2E3A59" fill-opacity=".43"/></svg>
